X: 3586
T: Bill Black's
R: hornpipe
M: 4/4
K: Gmajor
|:(3edc|B2 (3Bcd g>dc>B|A>cb>g f>ed>c|B>GB>d g2 (3BAG|(3ABG F>E (3DED (3cBA|
B>GB>d g2 (3dcB|A2 (3bag f2 (3edc|(3Bcd G>B (3ABc F>A|G2 (3F^EF G2:|
|:(3ABc|d2 (3cBA G>Bd>g|(3e^de (3c[Bd]c A2 c>d|e>^d (3=dcB A>ca>g|f2 d2 d2 (3def|
g>fg>e f>ef>d|e2 (3gfe d2 (3cBA|B>d (3GAB A>c (3FGA|G2 F2 G2:|

